X: 23
T: LET THE HACKLES RISE
C: Andrew Rankine
R: jig
B: "The Complete Andrew Rankine Collection of Scottish Country Dance Tunes" p.28
Z: 2017 John Chambers <jc:trillian.mit.edu>
M: 6/8
L: 1/8
K: A
|:\
"A"CEE EAA | Acc c3 | "E7"Bdd GBB | "A"Acc EAA |\
"A"CEE EAA | Acc "F#m"c3 | "Bm"Bdd "E7"GBB | "A"BAA A3 :|
|:\
"A"cee Acc | "E7"edd d3 | Bdd dff | "A"fee e3 |\
cee Acc | "E7"edd d3 | Bdd GBB | "A"BAA A3 :|
